X:2177
T:GDNIGHT5- The Parting Glass
O:england
Q:1/4=80
L:1/4
M:C
K:Dm
(A/G/)|FDD(C/D/)|FFG(F/G/)|AA(A/G/) (F/G/)|\
ACC(A/G/)|FDD(C/D/)|FFG(F/G/)|Ad(c/A/) (G/A/)|FDDA|\
(c/A/) (c/d/)cA|(c/A/) (c/d/)c3/2 A/|BA(A/G/) (F/G/)|\
ACC(A/G/)|FDD(C/D/)|FFG(F/G/)|Ad(c/A/) (G/A/)|FDD|]


